X: 41327
T: Turf House, The
R: reel
M: 4/4
K: Dmajor
B2 GB A2 FD|E2 DE FAA2|BcdB A2FD|E2DE FDD2|
BAGB AGFD|E2ED EFGA|BcdB A2FD|E2DE FDD2||
dfed B2A2|dfed cd e2|dfed B2AF|E2DE FDD2|
dfed B2A2|dfed cd e2|fdec dBAF|E2DE FDD2||

